X:196
T:Lisdoonvarna
Z: id:dc-reel-179
M:C
L:1/8
K:G Major
E|DEGA B2GB|cBAc BAGE|DEGA Bdge|dBAB GFGE|!
DEGA B2GB|cBAc BAGE|DEGA Bdge|dBAB G3:|!
A|Bdd2 cdeg|dgdB ABGA|Bdd2 cdeg|dBAB GFGA|!
Bdd2 c2Ac|BcdB ABGE|DEGA Bdge|dBAB G3:|!

